svg/material-icons/read_more/materialiconsround/20px.svg

<svg xmlns="http://www.w3.org/2000/svg" width="20" height="20" viewBox="0 0 20 20"><path d="M11 10 8 7v2.5H3.5c-.28 0-.5.22-.5.5s.22.5.5.5H8V13l3-3zm.5-2h5c.28 0 .5-.22.5-.5s-.22-.5-.5-.5h-5c-.28 0-.5.22-.5.5s.22.5.5.5zm5 4h-5c-.28 0-.5.22-.5.5s.22.5.5.5h5c.28 0 .5-.22.5-.5s-.22-.5-.5-.5zm0-2.5h-3c-.28 0-.5.22-.5.5s.22.5.5.5h3c.28 0 .5-.22.5-.5s-.22-.5-.5-.5z"/></svg>

<svg xmlns="http://www.w3.org/2000/svg" enable-background="new 0 0 20 20" height="20" viewBox="0 0 20 20" width="20"><g><rect fill="none" height="20" width="20"/></g><g><g><path d="M11,10L8,7v2.5H3.5C3.22,9.5,3,9.72,3,10c0,0.28,0.22,0.5,0.5,0.5H8V13L11,10z"/><path d="M11.5,8h5C16.78,8,17,7.78,17,7.5C17,7.22,16.78,7,16.5,7h-5C11.22,7,11,7.22,11,7.5C11,7.78,11.22,8,11.5,8z"/><path d="M16.5,12h-5c-0.28,0-0.5,0.22-0.5,0.5c0,0.28,0.22,0.5,0.5,0.5h5c0.28,0,0.5-0.22,0.5-0.5C17,12.22,16.78,12,16.5,12z"/><path d="M16.5,9.5h-3C13.22,9.5,13,9.72,13,10c0,0.28,0.22,0.5,0.5,0.5h3c0.28,0,0.5-0.22,0.5-0.5C17,9.72,16.78,9.5,16.5,9.5z"/></g></g></svg>
